src/WeatherTwentyOne/Resources/Images/fluent_weather_hail_day_20_filled.svg

<svg width="40" height="40" viewBox="0 0 40 40" fill="none" xmlns="http://www.w3.org/2000/svg">
<path d="M21.6564 33.332C22.0046 33.332 22.3386 33.4725 22.5849 33.7227C22.8312 33.9729 22.9695 34.3122 22.9695 34.666C22.9695 35.0198 22.8312 35.3591 22.5849 35.6093C22.3386 35.8595 22.0046 36 21.6564 36C21.3081 36 20.9741 35.8595 20.7278 35.6093C20.4816 35.3591 20.3432 35.0198 20.3432 34.666C20.3432 34.3122 20.4816 33.9729 20.7278 33.7227C20.9741 33.4725 21.3081 33.332 21.6564 33.332ZM17.0633 32C17.2399 31.993 17.416 32.0224 17.5812 32.0862C17.7464 32.1501 17.8971 32.2472 18.0245 32.3716C18.1519 32.4961 18.2532 32.6454 18.3224 32.8106C18.3916 32.9758 18.4273 33.1535 18.4273 33.333C18.4273 33.5125 18.3916 33.6902 18.3224 33.8554C18.2532 34.0206 18.1519 34.1699 18.0245 34.2944C17.8971 34.4188 17.7464 34.5159 17.5812 34.5798C17.416 34.6436 17.2399 34.673 17.0633 34.666C16.7241 34.6526 16.4031 34.5064 16.1678 34.2578C15.9324 34.0093 15.8009 33.6779 15.8009 33.333C15.8009 32.9881 15.9324 32.6567 16.1678 32.4082C16.4031 32.1596 16.7241 32.0133 17.0633 32V32ZM26.2495 32C26.426 31.993 26.6022 32.0224 26.7674 32.0862C26.9325 32.1501 27.0833 32.2472 27.2107 32.3716C27.338 32.4961 27.4394 32.6454 27.5086 32.8106C27.5778 32.9758 27.6134 33.1535 27.6134 33.333C27.6134 33.5125 27.5778 33.6902 27.5086 33.8554C27.4394 34.0206 27.338 34.1699 27.2107 34.2944C27.0833 34.4188 26.9325 34.5159 26.7674 34.5798C26.6022 34.6436 26.426 34.673 26.2495 34.666C25.9102 34.6526 25.5893 34.5064 25.3539 34.2578C25.1186 34.0093 24.9871 33.6779 24.9871 33.333C24.9871 32.9881 25.1186 32.6567 25.3539 32.4082C25.5893 32.1596 25.9102 32.0133 26.2495 32V32ZM21.6564 12C26.5093 12 29.2616 15.146 29.6613 18.948H29.7834C32.9058 18.948 35.4376 21.422 35.4376 24.474C35.4376 27.526 32.9058 30 29.7834 30H13.5294C10.4069 30 7.87511 27.526 7.87511 24.474C7.87511 21.422 10.4069 18.948 13.5294 18.948H13.6514C14.055 15.12 16.8034 12 21.6564 12ZM7.48727 17.4C7.56312 17.6215 7.55992 17.8631 7.47822 18.0824C7.39653 18.3018 7.24155 18.485 7.04036 18.6L6.87695 18.672L5.29999 19.224C5.06726 19.3067 4.81246 19.2977 4.58596 19.1988C4.35946 19.0998 4.17776 18.9181 4.07679 18.6896C3.97583 18.4611 3.96296 18.2024 4.04072 17.9647C4.11848 17.727 4.28121 17.5277 4.49674 17.406L4.65817 17.334L6.23711 16.782C6.48383 16.696 6.75407 16.713 6.98847 16.8292C7.22287 16.9455 7.40227 17.1515 7.48727 17.402V17.4ZM17.5614 9C18.215 9.324 18.7918 9.746 19.2801 10.24C15.8111 10.968 13.3148 13.306 12.3048 16.552L12.1768 17L12.0863 17.374L11.7614 17.434C10.888 17.6167 10.0543 17.9582 9.30049 18.442C8.53951 17.2378 8.187 15.8139 8.29667 14.3873C8.40634 12.9607 8.97218 11.6096 9.90794 10.5401C10.8437 9.47053 12.0981 8.74114 13.4798 8.46309C14.8616 8.18504 16.2949 8.37359 17.5614 9V9ZM5.74295 9.34L5.90636 9.404L7.40655 10.146C7.62771 10.2552 7.80062 10.4446 7.89125 10.6768C7.98189 10.909 7.98368 11.1673 7.89628 11.4008C7.80889 11.6343 7.63863 11.8261 7.41901 11.9385C7.19939 12.0508 6.94633 12.0756 6.70961 12.008L6.54424 11.944L5.04405 11.202C4.82289 11.0928 4.64998 10.9034 4.55934 10.6712C4.46871 10.439 4.46691 10.1807 4.55431 9.94722C4.64171 9.71372 4.81197 9.52191 5.03158 9.40953C5.2512 9.29715 5.50427 9.27235 5.74099 9.34H5.74295ZM19.6679 4.59C19.8752 4.69274 20.0404 4.86615 20.1347 5.07998C20.2289 5.29381 20.2463 5.53448 20.1837 5.76L20.1207 5.928L19.3903 7.452C19.2828 7.67666 19.0964 7.85232 18.8678 7.94439C18.6392 8.03647 18.385 8.03829 18.1552 7.94951C17.9253 7.86072 17.7365 7.68776 17.6259 7.46466C17.5153 7.24155 17.4908 6.98447 17.5574 6.744L17.6204 6.574L18.3528 5.05C18.4673 4.812 18.6701 4.62989 18.9167 4.54364C19.1633 4.4574 19.4334 4.47407 19.6679 4.59V4.59ZM12.2064 4.526L12.2792 4.69L12.8226 6.294C12.9025 6.53011 12.8925 6.78803 12.7947 7.01706C12.6968 7.2461 12.5182 7.42967 12.2939 7.5317C12.0696 7.63372 11.8158 7.64682 11.5825 7.56842C11.3492 7.49001 11.1532 7.32578 11.033 7.108L10.9621 6.944L10.4187 5.342C10.3401 5.10644 10.3507 4.84958 10.4485 4.62154C10.5463 4.39351 10.7242 4.21067 10.9475 4.10873C11.1708 4.00678 11.4236 3.99305 11.6563 4.0702C11.8891 4.14736 12.0852 4.30986 12.2064 4.526V4.526Z" fill="url(#paint0_linear)"/>
<defs>
<linearGradient id="paint0_linear" x1="9.36052" y1="9.80251" x2="27.805" y2="26.8051" gradientUnits="userSpaceOnUse">
<stop offset="0.10243" stop-color="#28C2D1"/>
<stop offset="0.925347" stop-color="#4931DE"/>
</linearGradient>
</defs>
</svg>

<svg width="40" height="40" fill="none" xmlns="http://www.w3.org/2000/svg">
    <path
        d="M21.656 33.332c.349 0 .683.14.929.39a1.345 1.345 0 010 1.887 1.303 1.303 0 01-1.857 0 1.345 1.345 0 010-1.886c.246-.25.58-.391.928-.391zM17.063 32a1.295 1.295 0 01.962.372 1.335 1.335 0 01.402.961 1.353 1.353 0 01-.402.961 1.312 1.312 0 01-.962.372c-.339-.013-.66-.16-.895-.408a1.345 1.345 0 010-1.85c.235-.248.556-.395.895-.408zm9.187 0a1.295 1.295 0 01.96.372 1.336 1.336 0 01.403.961 1.352 1.352 0 01-.402.961 1.313 1.313 0 01-.961.372c-.34-.013-.66-.16-.896-.408a1.345 1.345 0 010-1.85c.235-.248.556-.395.896-.408zm-4.594-20c4.853 0 7.606 3.146 8.005 6.948h.122c3.123 0 5.655 2.474 5.655 5.526 0 3.052-2.532 5.526-5.655 5.526H13.53c-3.122 0-5.654-2.474-5.654-5.526 0-3.052 2.532-5.526 5.654-5.526h.122C14.055 15.12 16.803 12 21.656 12zM7.487 17.4c.076.222.073.463-.009.682a.995.995 0 01-.438.518l-.163.072-1.577.552a.97.97 0 01-.714-.025.992.992 0 01-.51-.51 1.015 1.015 0 01-.035-.724.996.996 0 01.456-.559l.161-.072 1.58-.552a.97.97 0 01.75.047.995.995 0 01.5.573V17.4zM17.561 9c.654.324 1.23.746 1.72 1.24-3.47.728-5.966 3.066-6.976 6.312l-.128.448-.09.374-.326.06a7.337 7.337 0 00-2.46 1.008 6.641 6.641 0 01.607-7.902 6.435 6.435 0 013.572-2.077A6.367 6.367 0 0117.56 9zm-11.818.34l.163.064 1.5.742c.222.11.395.299.485.53.09.233.093.491.005.725a.995.995 0 01-.477.537.971.971 0 01-.71.07l-.165-.064-1.5-.742a.994.994 0 01-.485-.53 1.015 1.015 0 01-.005-.725.995.995 0 01.478-.537.97.97 0 01.709-.07h.002zm13.925-4.75a.993.993 0 01.467.49c.094.214.111.454.049.68l-.063.168-.73 1.524a.99.99 0 01-.523.492.97.97 0 01-.713.006.99.99 0 01-.53-.485 1.014 1.014 0 01-.068-.721l.063-.17.733-1.524a.99.99 0 01.564-.506.97.97 0 01.75.046zm-7.462-.064l.073.164.544 1.604c.08.236.07.494-.028.723a.993.993 0 01-.501.515.97.97 0 01-.712.036.988.988 0 01-.549-.46l-.07-.164-.544-1.602a1.015 1.015 0 01.03-.72.993.993 0 01.498-.513.97.97 0 01.71-.039c.232.077.428.24.55.456z"
        fill="url(#prefix__paint0_linear)" />
    <defs>
        <linearGradient id="prefix__paint0_linear" x1="9.361" y1="9.803" x2="27.805" y2="26.805"
            gradientUnits="userSpaceOnUse">
            <stop offset=".102" stop-color="#28C2D1" />
            <stop offset=".925" stop-color="#4931DE" />
        </linearGradient>
    </defs>
</svg>
